images/illus_activity.svg

<svg width="200" height="200" viewBox="0 0 200 200" fill="none" xmlns="http://www.w3.org/2000/svg">
<g id="illus_activity">
<path id="Fill 2" fill-rule="evenodd" clip-rule="evenodd" d="M69.6963 106.627C69.6963 110.004 71.6783 111.607 74.1163 110.2C76.5543 108.793 78.5363 104.902 78.5363 101.524V100.299L69.6963 105.402V106.627ZM89.1433 90.5024C89.1433 91.1794 88.7483 91.9554 88.2593 92.2374L59.9713 108.565C59.4833 108.847 59.0883 108.527 59.0873 107.851C59.0873 107.173 59.4833 106.398 59.9713 106.115C61.1753 105.421 62.6233 100.824 62.6223 98.4604V91.1114C62.6213 83.9824 66.0203 75.9714 70.6903 71.2534C70.6173 70.9014 70.5603 70.5354 70.5603 70.1254C70.5603 67.4244 72.1473 64.3104 74.0963 63.1854C76.0453 62.0594 77.6323 63.3424 77.6323 66.0434C77.6323 66.4494 77.5773 66.8774 77.5073 67.3074C82.1913 66.6144 85.6053 70.7024 85.6063 77.8454L85.6073 85.1944C85.6073 87.5584 87.0563 90.4824 88.2593 89.7884C88.7483 89.5054 89.1433 89.8254 89.1433 90.5024V90.5024Z" fill="#1A4A44"/>
<path id="Fill 4" opacity="0.8" fill-rule="evenodd" clip-rule="evenodd" d="M92.146 61.2276C92.146 66.6396 88.98 72.8536 85.075 75.1086C81.169 77.3626 78.002 74.8036 78.002 69.3916C78.001 63.9796 81.167 57.7656 85.073 55.5116C88.979 53.2566 92.145 55.8156 92.146 61.2276" fill="#F2584D"/>
<path id="Fill 6" opacity="0.3" fill-rule="evenodd" clip-rule="evenodd" d="M133.863 130.946H139.21C140.199 130.946 141 130.486 141 129.917C141 129.348 140.199 128.888 139.21 128.888H133.863C132.874 128.888 132.073 129.348 132.073 129.917C132.073 130.202 132.273 130.459 132.597 130.645C132.92 130.831 133.368 130.946 133.863 130.946M130.769 124.095L135.833 121.184C136.532 120.781 136.532 120.13 135.833 119.728C135.134 119.325 134 119.325 133.301 119.728L128.236 122.639C127.538 123.041 127.538 123.693 128.236 124.095C128.936 124.496 130.07 124.496 130.769 124.095M118.529 122.132C119.519 122.132 120.32 121.671 120.32 121.103V118.029C120.321 117.461 119.519 117 118.531 117C117.541 117 116.74 117.461 116.74 118.029L116.739 121.103C116.739 121.387 116.939 121.644 117.264 121.83C117.588 122.017 118.035 122.132 118.529 122.132M99.5132 124.595L93.6046 121.198C93.1403 120.932 92.3811 120.932 91.9168 121.198L73.3482 131.873C72.8839 132.139 72.8839 132.576 73.3482 132.844L79.2557 136.24C80.1843 136.773 81.7039 136.773 82.6325 136.24L99.5132 126.535C100.442 126.002 100.442 125.129 99.5132 124.595M120.615 143.519C119.222 144.318 116.943 144.318 115.55 143.519L114.22 142.755C114.207 142.759 114.194 142.766 114.181 142.772C115.23 143.577 115.133 144.728 113.862 145.459C112.469 146.26 110.19 146.26 108.797 145.459L108.246 145.142C108.141 145.177 108.036 145.212 107.932 145.246C108.387 145.972 108.12 146.82 107.11 147.399C105.717 148.2 103.438 148.2 102.045 147.399L100.357 146.43C100.172 146.323 100.017 146.208 99.8809 146.086C92.6783 142.658 88.5256 138.992 86.0082 136.24L102.889 126.535C106.256 128.471 108.072 127.28 112.532 127.286C116.71 127.294 118.91 127.618 121.964 125.863C124.161 124.6 127.18 126.178 126.77 127.859C125.996 131.045 114.341 131.135 119.881 134.321C120.106 134.45 120.296 134.583 120.474 134.719C120.519 134.741 120.571 134.759 120.615 134.784L125.678 137.695C127.071 138.496 127.071 139.807 125.678 140.606C124.286 141.407 122.007 141.407 120.615 140.606C122.007 141.407 122.007 142.718 120.615 143.519" fill="#1A4A44"/>
</g>
</svg>

<svg width="200" height="200" xmlns="http://www.w3.org/2000/svg"><g fill="none" fill-rule="evenodd"><path d="M0 200h200V0H0z"/><path d="M69.696 106.627c0 3.377 1.982 4.98 4.42 3.573 2.438-1.407 4.42-5.298 4.42-8.676V100.3l-8.84 5.103v1.225zm19.447-16.125c0 .677-.395 1.453-.884 1.735l-28.288 16.328c-.488.282-.883-.038-.884-.714 0-.678.396-1.453.884-1.736 1.204-.694 2.652-5.29 2.651-7.655v-7.349c0-7.129 3.398-15.14 8.068-19.858a5.438 5.438 0 0 1-.13-1.128c0-2.7 1.587-5.815 3.536-6.94 1.95-1.126 3.536.157 3.536 2.858a8 8 0 0 1-.125 1.264c4.684-.693 8.098 3.395 8.1 10.538v7.35c0 2.363 1.45 5.287 2.652 4.593.49-.283.884.037.884.714z" fill="#1A4A44"/><path d="M92.146 61.227c0 5.413-3.166 11.627-7.071 13.882-3.906 2.254-7.073-.305-7.073-5.718-.001-5.412 3.165-11.626 7.071-13.88 3.906-2.255 7.072.304 7.073 5.716" fill="#F2584D" opacity=".8"/><path d="M133.863 130.946h5.347c.99 0 1.79-.46 1.79-1.029s-.8-1.029-1.79-1.029h-5.347c-.99 0-1.79.46-1.79 1.03 0 .284.2.54.524.727.323.186.77.301 1.266.301m-3.094-6.851l5.064-2.911c.7-.403.7-1.054 0-1.456-.699-.403-1.833-.403-2.532 0l-5.065 2.911c-.698.402-.698 1.054 0 1.456.7.401 1.834.401 2.533 0m-12.24-1.963c.99 0 1.79-.461 1.79-1.03v-3.073c.002-.568-.8-1.029-1.788-1.029-.99 0-1.79.461-1.79 1.029l-.002 3.074c0 .284.2.54.525.727.324.187.771.302 1.265.302m-19.016 2.463l-5.908-3.397c-.465-.266-1.224-.266-1.688 0l-18.569 10.675c-.464.266-.464.703 0 .97l5.908 3.397c.928.533 2.448.533 3.377 0l16.88-9.705c.929-.533.929-1.406 0-1.94m21.102 18.924c-1.393.8-3.672.8-5.065 0l-1.33-.764c-.013.004-.026.011-.04.017 1.05.805.953 1.956-.318 2.687-1.393.8-3.672.8-5.065 0l-.551-.317-.314.104c.455.726.188 1.574-.822 2.153-1.393.801-3.672.801-5.065 0l-1.688-.97a2.863 2.863 0 0 1-.476-.343c-7.203-3.428-11.355-7.094-13.873-9.846l16.88-9.705c3.368 1.936 5.184.745 9.644.751 4.178.008 6.378.332 9.432-1.423 2.197-1.263 5.216.315 4.806 1.996-.774 3.186-12.43 3.276-6.89 6.462.226.13.416.262.594.398.045.022.097.04.14.065l5.064 2.911c1.393.801 1.393 2.112 0 2.911-1.392.801-3.671.801-5.063 0 1.392.801 1.392 2.112 0 2.913" fill="#1A4A44" opacity=".3"/></g></svg>
